build/svg/cmd/ru/sc_bold.svg

<?xml version="1.0" encoding="UTF-8" standalone="no"?>
<svg
   xmlns:dc="http://purl.org/dc/elements/1.1/"
   xmlns:cc="http://creativecommons.org/ns#"
   xmlns:rdf="http://www.w3.org/1999/02/22-rdf-syntax-ns#"
   xmlns:svg="http://www.w3.org/2000/svg"
   xmlns="http://www.w3.org/2000/svg"
   xmlns:sodipodi="http://sodipodi.sourceforge.net/DTD/sodipodi-0.dtd"
   xmlns:inkscape="http://www.inkscape.org/namespaces/inkscape"
   viewBox="0 0 16 16"
   version="1.1"
   id="svg4"
   sodipodi:docname="sc_bold.svg"
   inkscape:version="0.92.5 (2060ec1f9f, 2020-04-08)"
   inkscape:export-filename="/home/jupiter007/Libreoffice yaru theme fullcolor/build/cmd/ru/sc_bold.png"
   inkscape:export-xdpi="96"
   inkscape:export-ydpi="96">
  <metadata
     id="metadata10">
    <rdf:RDF>
      <cc:Work
         rdf:about="">
        <dc:format>image/svg+xml</dc:format>
        <dc:type
           rdf:resource="http://purl.org/dc/dcmitype/StillImage" />
      </cc:Work>
    </rdf:RDF>
  </metadata>
  <defs
     id="defs8" />
  <sodipodi:namedview
     pagecolor="#ffffff"
     bordercolor="#666666"
     borderopacity="1"
     objecttolerance="10"
     gridtolerance="10"
     guidetolerance="10"
     inkscape:pageopacity="0"
     inkscape:pageshadow="2"
     inkscape:window-width="1920"
     inkscape:window-height="1011"
     id="namedview6"
     showgrid="true"
     inkscape:zoom="41.7193"
     inkscape:cx="8.2280709"
     inkscape:cy="7.1356656"
     inkscape:window-x="0"
     inkscape:window-y="32"
     inkscape:window-maximized="1"
     inkscape:current-layer="svg4">
    <inkscape:grid
       type="xygrid"
       id="grid817" />
  </sodipodi:namedview>
  <path
     sodipodi:nodetypes="ccsccccscccccsccccccccsccccsccsccccccccccccsc"
     style="opacity:0.6;fill:#000000;stroke:#000000;stroke-width:2;stroke-linejoin:round;stroke-miterlimit:4;stroke-dasharray:none"
     inkscape:connector-curvature="0"
     id="path819"
     d="M 1,2 3.0146485,6.4238281 C 3.1795231,6.7380276 3.3484649,6.9902403 3.5205079,7.1835938 3.6925509,7.3769472 3.8998272,7.5297886 4.1435548,7.6425781 3.8066372,7.7634241 3.5304836,7.9421458 3.3154298,8.1757812 3.1075445,8.4013603 2.9217106,8.6904405 2.7568361,9.0449219 L 1,14 h 1.4130861 c 0.2437275,0 0.4555541,-0.02026 0.6347656,-0.06055 0.1792114,-0.04028 0.3319052,-0.101077 0.4609375,-0.181641 0.1362007,-0.08862 0.2551103,-0.197269 0.3554687,-0.326171 0.1003585,-0.136959 0.1906783,-0.293463 0.2695313,-0.470703 L 5.3798829,9.734375 C 5.4945782,9.4443448 5.6492252,9.2307087 5.8427735,9.09375 6.0363219,8.9567913 6.3985181,8.8886719 6.6494142,8.8886719 V 14 H 9.2958986 V 8.8886719 c 0.250896,0 0.6462954,0.068119 0.8398434,0.2050781 0.200717,0.1369587 0.355364,0.3469325 0.462891,0.6289062 l 1.257813,3.2499998 c 0.157706,0.354482 0.362385,0.615972 0.613281,0.785156 C 12.720623,13.91894 13.082546,14 13.555664,14 H 15 L 13.231446,9.0449219 C 13.066571,8.6904405 12.87814,8.4013603 12.663086,8.1757812 12.455201,7.9421458 12.181645,7.7634241 11.844727,7.6425781 12.088454,7.5297886 12.297684,7.3769472 12.469727,7.1835938 12.64177,6.9902403 12.808758,6.7380276 12.973633,6.4238281 L 15,2 13.038086,2 c -0.250896,0 -0.479615,0.071782 -0.6875,0.2167969 -0.200717,0.1450151 -0.362511,0.3440017 -0.484375,0.59375 l -1.505859,3.359375 C 10.252825,6.4196701 10.117023,6.6037635 9.952149,6.7246094 9.787275,6.8373989 9.5682996,6.8945312 9.2958986,6.8945312 V 2 H 6.6494142 V 6.8945312 C 6.3770128,6.8945313 6.1651862,6.8373989 6.0146485,6.7246094 5.8641109,6.6037635 5.7328595,6.4196701 5.6181642,6.1699219 L 4.1220704,2.796875 C 4.0002066,2.5471267 3.8358151,2.3537555 3.6279298,2.2167969 3.427213,2.0717817 3.2010915,2 2.9501954,2 Z" />
  <path
     d="M 1,2 3.0146485,6.4238281 C 3.1795231,6.7380276 3.3484649,6.9902403 3.5205079,7.1835938 3.6925509,7.3769472 3.8998272,7.5297886 4.1435548,7.6425781 3.8066372,7.7634241 3.5304836,7.9421458 3.3154298,8.1757812 3.1075445,8.4013603 2.9217106,8.6904405 2.7568361,9.0449219 L 1,14 h 1.4130861 c 0.2437275,0 0.4555541,-0.02026 0.6347656,-0.06055 0.1792114,-0.04028 0.3319052,-0.101077 0.4609375,-0.181641 0.1362007,-0.08862 0.2551103,-0.197269 0.3554687,-0.326171 0.1003585,-0.136959 0.1906783,-0.293463 0.2695313,-0.470703 L 5.3798829,9.734375 C 5.4945782,9.4443448 5.6492252,9.2307087 5.8427735,9.09375 6.0363219,8.9567913 6.3985181,8.8886719 6.6494142,8.8886719 V 14 H 9.2958986 V 8.8886719 c 0.250896,0 0.6462954,0.068119 0.8398434,0.2050781 0.200717,0.1369587 0.355364,0.3469325 0.462891,0.6289062 l 1.257813,3.2499998 c 0.157706,0.354482 0.362385,0.615972 0.613281,0.785156 C 12.720623,13.91894 13.082546,14 13.555664,14 H 15 L 13.231446,9.0449219 C 13.066571,8.6904405 12.87814,8.4013603 12.663086,8.1757812 12.455201,7.9421458 12.181645,7.7634241 11.844727,7.6425781 12.088454,7.5297886 12.297684,7.3769472 12.469727,7.1835938 12.64177,6.9902403 12.808758,6.7380276 12.973633,6.4238281 L 15,2 13.038086,2 c -0.250896,0 -0.479615,0.071782 -0.6875,0.2167969 -0.200717,0.1450151 -0.362511,0.3440017 -0.484375,0.59375 l -1.505859,3.359375 C 10.252825,6.4196701 10.117023,6.6037635 9.952149,6.7246094 9.787275,6.8373989 9.5682996,6.8945312 9.2958986,6.8945312 V 2 H 6.6494142 V 6.8945312 C 6.3770128,6.8945313 6.1651862,6.8373989 6.0146485,6.7246094 5.8641109,6.6037635 5.7328595,6.4196701 5.6181642,6.1699219 L 4.1220704,2.796875 C 4.0002066,2.5471267 3.8358151,2.3537555 3.6279298,2.2167969 3.427213,2.0717817 3.2010915,2 2.9501954,2 Z"
     id="path2"
     inkscape:connector-curvature="0"
     style="fill:#ffffff"
     sodipodi:nodetypes="ccsccccscccccsccccccccsccccsccsccccccccccccsc" />
</svg>

<svg xmlns="http://www.w3.org/2000/svg" viewBox="0 0 16 16"><path d="M1 2l2.015 4.424c.165.314.333.566.506.76.172.193.379.346.623.459-.337.12-.614.3-.829.533a3.368 3.368 0 00-.558.869L1 14h1.413c.244 0 .456-.02.635-.06.18-.04.332-.102.46-.182a1.45 1.45 0 00.356-.326c.1-.137.19-.294.27-.471L5.38 9.734c.115-.29.27-.503.463-.64s.556-.205.806-.205V14h2.647V8.889c.25 0 .646.068.84.205.2.137.355.347.463.629l1.257 3.25c.158.354.363.616.614.785.25.16.613.242 1.086.242H15l-1.769-4.955a3.205 3.205 0 00-.568-.87 1.957 1.957 0 00-.818-.532c.243-.113.453-.266.625-.46.172-.193.339-.445.504-.76L15 2h-1.962c-.25 0-.48.072-.687.217a1.56 1.56 0 00-.485.594L10.36 6.17c-.107.25-.243.434-.408.555-.165.112-.384.17-.656.17V2H6.649v4.895c-.272 0-.484-.058-.634-.17-.15-.121-.282-.305-.397-.555L4.122 2.797a1.421 1.421 0 00-.494-.58A1.129 1.129 0 002.95 2z" opacity=".6" stroke="#000" stroke-width="2" stroke-linejoin="round"/><path d="M1 2l2.015 4.424c.165.314.333.566.506.76.172.193.379.346.623.459-.337.12-.614.3-.829.533a3.368 3.368 0 00-.558.869L1 14h1.413c.244 0 .456-.02.635-.06.18-.04.332-.102.46-.182a1.45 1.45 0 00.356-.326c.1-.137.19-.294.27-.471L5.38 9.734c.115-.29.27-.503.463-.64s.556-.205.806-.205V14h2.647V8.889c.25 0 .646.068.84.205.2.137.355.347.463.629l1.257 3.25c.158.354.363.616.614.785.25.16.613.242 1.086.242H15l-1.769-4.955a3.205 3.205 0 00-.568-.87 1.957 1.957 0 00-.818-.532c.243-.113.453-.266.625-.46.172-.193.339-.445.504-.76L15 2h-1.962c-.25 0-.48.072-.687.217a1.56 1.56 0 00-.485.594L10.36 6.17c-.107.25-.243.434-.408.555-.165.112-.384.17-.656.17V2H6.649v4.895c-.272 0-.484-.058-.634-.17-.15-.121-.282-.305-.397-.555L4.122 2.797a1.421 1.421 0 00-.494-.58A1.129 1.129 0 002.95 2z" fill="#fff"/></svg>
